X:223
T: MEIN KANAPEE IST MEIN VERGNUEGEN
N: B0710A
O: Europa, Mitteleuropa, Deutschland, Brandenburg
R: Scherz - Lied
M: 3/4
L: 1/8
K: F
C | CAGFEF | DBG2z
F | EDCCdc | cAF2z
C | CAGFEF | DBG2z
F | EDCCdc | cAF2z
A | GFEBGC | cBA2z
F | GABdcE | F2z
AGF | EdcBAG | F2z
FGA | Bdc2E2 | F4z

@@@ Tune index: 2441
